X:18010
T:Roman Wall
R:Jig
C:Trad.
S:Pete Coe
O:England, Northumberland
M:6/8
L:1/8
Q:1/8=200
K:G
D|"G"G2G BAG|Bdg dBG|"C"c2e "G"dBG|"D"FAA A2D|
"G"G2G BAG|Bdg dBG|"C"cde "G"dBG|"D"AGF "G"G2:|
|:z|"C"g2g "D"fed|"C"efg "G"dBG|"C"cde "G"dBG|
"D"F2A A2d|"C"g2g "D"fed|"C"efg "G"dBG|"C"cde "G"dBG|"D"AGF "G"G2:|

